!!!!SEGMENT: pl-wtm--r-1350--001-001_stefani-jozef--fraszka-muzyczna-allegro-moderato.krn
!!!cenid: 18xx:1850
!!!COM: Stefani, Józef
!!!COM-rismID: pe30024097
!!!CDT: 1800/04/16-1876/03/19
!!!CNT: Polish
!!!GTL: Fraszka muzyczna
!!!OTL: Allegro moderato
!!!OMV: 001
!!!PDT:
!!!AGN: Secular
!!!YEC: Copyright 2022 Narodowy Instytut Fryderyka Chopina (https://polishscores.org)
!!!YEM: License CC-BY-4.0 (https://creativecommons.org/licenses/by/4.0)
!!!SMS-siglum: PL-Wtm
!!!SMS-shelfmark: R 1350
!!!SMS-shelfwork: 001-001 G
!!!SMS-variant:
!!!SMS-altvar:
!!!NIFC-rismSourceID: 1001119433
!!!NIFC-rismChildID: 1001119435
!!!NIFC-islandoraID: pl-wtm:25286
!!!URL-pdf-islandora: https://repozytorium.nifc.pl/islandora/object/pl-wtm%3A25286/datastream/PDF/view
!!!URL-scan: https://polish.musicsources.pl/pl/lokalizacje/galeria/rekopisy/6202 @EN{Scan on Polish Music Sources Website} @PL{Skany w portalu Dziedzictwo Muzyki Polskiej w otwartym dostępie}
!!!IIIF:
!!!ONB-nifc: UWAGA: skan 0002
!!!OMD: Allegro moderato.
!!!AIN: 1 empty
!!!key:
**kern	**fing	**kern	**fing	**dynam
*part1	*	*part1	*	*
*staff2	*	*staff1	*	*
*Iempty	*	*Ipiano	*	*
*	*	*I"Piano	*	*
*clefG2	*	*clefG2	*	*
*k[]	*	*k[]	*	*
*C:	*	*C:	*	*
*M4/4	*	*M4/4	*	*
*met(c)	*	*met(c)	*	*
*>[A,B,B]	*	*>[A,B,B]	*	*
=1	=1	=1	=1	=1
*>A	*	*>A	*	*
!	!	!LO:TX:t=P:problem=all\right&colon; global	!	!
!LO:TX:t=P:problem=all\right&colon; global	!	!	!	!
!	!	!LO:TX:a:Bi:t=Kajet Iszy	!	!
!	!	!LO:TX:b:Bi:t=p. e staccato:dur=7e:ext=s:problem=dynamics [text] with extention lines	!	!
2g 2e 2c/	5 3 1	8cc\L	1	p
.	.	8dd\	.	.
.	.	8ee\	.	.
.	.	8ff\J	.	.
2g 2e 2c/	.	8ee\L	.	.
.	.	8dd\	.	.
.	.	8cc\	.	.
.	.	8ee\J	.	.
=2	=2	=2	=2	=2
2g 2f 2B/	5 2 1	8dd\L	.	.
.	.	8ee\	.	.
.	.	8ff\	.	.
.	.	8gg\J	.	.
2g 2f 2B/	.	8ff\L	.	.
.	.	8ee\	.	.
.	.	8dd\	.	.
.	.	8ff\J	.	.
=3	=3	=3	=3	=3
2g 2e 2c/	5 3 1	8cc\L	.	.
.	.	8dd\	.	.
.	.	8ee\	.	.
.	.	8ff\J	.	.
2g 2e 2c/	.	8ee\L	.	.
.	.	8dd\	.	.
.	.	8cc\	.	.
.	.	8ee\J	.	.
!!LO:LB:g=original
=4	=4	=4	=4	=4
2g 2f 2B/	5 2 1	8dd\L	.	.
.	.	8ff\	.	.
.	.	8ee\	.	.
.	.	8dd\J	.	.
4g 4e 4c/	5 3 1	4cc\	.	.
4r	.	4r	.	.
=5!|:	=5!|:	=5!|:	=5!|:	=5!|:
*>B	*	*>B	*	*
!	!	!	!	!LO:DY:b:Bi:t=%sor:rj
8d/L	.	8dd\L	.	f
8e/	.	8ee\	.	.
8d/	.	8dd\	.	.
8e/J	.	8ee\J	.	.
8d/L	.	8dd\L	.	.
8g/	.	8gg\	.	.
8f#X/	.	8ff#X\	.	.
8e/J	.	8ee\J	.	.
=6	=6	=6	=6	=6
8d/L	.	8dd\L	.	.
8e/	.	8ee\	.	.
8d/	.	8dd\	.	.
8e/J	.	8ee\J	.	.
8d/L	.	8dd\L	.	.
8g/	.	8gg\	.	.
8f#X/	.	8ff#X\	.	.
8e/J	.	8ee\J	.	.
!!LO:LB:g=original
=7	=7	=7	=7	=7
8d/L	.	8dd\L	.	.
8e/	.	8ee\	.	.
8d/	.	8dd\	.	.
8e/J	.	8ee\J	.	.
8d/L	1	8dd\L	.	.
8c/	2	8cc\	.	.
8B/	3	8b\	3	.
8A/J	4	8a\J	2	.
=8	=8	=8	=8	=8
8G/L	5	8g\L	1	.
8B/	.	8b\	.	.
8d/	.	8dd\	.	.
8B/J	.	8b\J	.	.
8G/L	.	8g\L	.	.
8g/	1.	8gg\	5	.
8fn/	.	8ffn\	.	.
8d/J	.	8dd\J	.	.
=9	=9	=9	=9	=9
2g 2e 2c/	.	8cc\L	.	p
.	.	8dd\	.	.
.	.	8ee\	.	.
.	.	8ff\J	.	.
2g 2e 2c/	.	8ee\L	.	.
.	.	8dd\	.	.
.	.	8cc\	.	.
.	.	8ee\J	.	.
!!LO:LB:g=original
=10	=10	=10	=10	=10
2g 2f 2B/	.	8dd\L	.	.
.	.	8ee\	.	.
.	.	8ff\	.	.
.	.	8gg\J	.	.
2g 2f 2B/	.	8ff\L	.	.
.	.	8ee\	.	.
.	.	8dd\	.	.
.	.	8ff\J	.	.
=11	=11	=11	=11	=11
2g 2e 2c/	.	8cc\L	.	.
.	.	8dd\	.	.
.	.	8ee\	.	.
.	.	8ff\J	.	.
2g 2e 2c/	.	8ee\L	.	.
.	.	8dd\	.	.
.	.	8cc\	.	.
.	.	8ee\J	.	.
=12	=12	=12	=12	=12
4g 4f 4B/	.	8dd\L	.	.
.	.	8ff\	.	.
4g 4f 4B/	.	8ee\	.	.
.	.	8dd\J	.	.
4g 4e 4c/	.	4cc\	.	.
!LO:TX:b:Bi:t=Fraszki Muzyczne\nnapisane na\nFortepiano\ndla dzieci nieznających\nieszcze Klucza bassowego\nprzez\nJ Stefaniego	!	!	!	!
4r	.	4r	.	.
==:|!	==:|!	==:|!	==:|!	==:|!
*-	*-	*-	*-	*-
!!!system-decoration: {(s1,s2)}
!!!RDF**kern: > = above
!!!RDF**kern: < = below
!!!RDF**kern: N = linked
!!!RDF**kern: i = editorial accidental
!!!EED: Wojciech Jakubiak-Danek
!!!EEV: 2021-05-03
!!!ENC: Krzysztof Stępień
!!!END: 2021-04-10
